X: 1
T: Nova Scotia Reel
C: Gregory Grene
O: Irish
Z: trans. Darin Kelly <darin.kelly@comcast.net>
R: reel
M: C
L: 1/8
Z: Contributed 20040118220953 by Darin Kelly darin.kelly@comcast.net
K: AMixolydian
cd|:e2ce ABcA|Bcdf edce|d2BG dGBG|~g3b agfd|e2ce ABcA|Bcdf edce|~d2Bc dfed|cdBc A2cd:|eA (3AAA d2cd|eA (3AAA d2cd|eA (3AAA d2cd|efge d2cd|eA (3AAA d2cd|eA (3AAA d2cd|eA (3AAA d2cd|efge d2cd||
